X:1
T:T201A-  Bessie Bell
S:Nelly Diem's translation from the Guthrie MS, c 1675
L:1/8
M:3/4
K:G
B,3/2D/D D2G|E3/2D/EC3|B,3/2D/DD2E|G3B3|\
B,3/2D/DD2G|E3/2D/EC3|cdBc2A|G3B3||\
B3/2A/B G2G|A2F cBA|B2G GAB|c6|\
B3/2A/B A3/2G/F|A2FA2c|BAG AGE|G3B3|]

